svg/shape/star_half_line.svg

<?xml version="1.0" encoding="UTF-8"?>
<svg width="24px" height="24px" viewBox="0 0 24 24" version="1.1" xmlns="http://www.w3.org/2000/svg" xmlns:xlink="http://www.w3.org/1999/xlink">
    <title>star_half_line</title>
    <g id="Icon" stroke="none" stroke-width="1" fill="none" fill-rule="evenodd">
        <g id="Shape" transform="translate(-624.000000, 0.000000)">
            <g id="star_half_line" transform="translate(624.000000, 0.000000)">
                <path d="M24,0 L24,24 L0,24 L0,0 L24,0 Z M12.5935,23.2578 L12.5819,23.2595 L12.5109,23.295 L12.4919,23.2987 L12.4767,23.295 L12.4057,23.2595 C12.3958,23.2564 12.387,23.259 12.3821,23.2649 L12.378,23.2758 L12.3609,23.7031 L12.3659,23.7235 L12.3769,23.7357 L12.4805,23.8097 L12.4953,23.8136 L12.5071,23.8097 L12.6107,23.7357 L12.6233,23.7197 L12.6267,23.7031 L12.6096,23.2758 C12.6076,23.2657 12.601,23.2593 12.5935,23.2578 Z M12.8584,23.1453 L12.8445,23.1473 L12.6598,23.2397 L12.6499,23.2499 L12.6472,23.2611 L12.6651,23.6906 L12.6699,23.7034 L12.6784,23.7105 L12.8793,23.8032 C12.8914,23.8069 12.9022,23.803 12.9078,23.7952 L12.9118,23.7812 L12.8777,23.1665 C12.8753,23.1546 12.8674,23.147 12.8584,23.1453 Z M12.143,23.1473 C12.1332,23.1424 12.1222,23.1453 12.1156,23.1526 L12.1099,23.1665 L12.0758,23.7812 C12.0751,23.7927 12.0828,23.8019 12.0926,23.8046 L12.1083,23.8032 L12.3092,23.7105 L12.3186,23.7024 L12.3225,23.6906 L12.3404,23.2611 L12.3372,23.2485 L12.3278,23.2397 L12.143,23.1473 Z" id="MingCute" fill-rule="nonzero"></path>
                <path d="M11.0001,6.70378 L9.68685,8.95851 C9.51022,9.26176 9.21425,9.4768 8.87126,9.55107 L4.37919,10.5238 L7.44159,13.9512 C7.67542,14.2128 7.78847,14.5608 7.75311,14.9099 L7.29012,19.4827 L11.0001,17.8479 L11.0001,6.70378 Z M10.67,3.29682 C11.3124,2.19391 13.0001,2.64959 13.0001,3.92595 L13.0001,18.337 C13.0001,18.8324 12.7075,19.2811 12.2542,19.4808 L6.91828,21.8322 C6.04161,22.2185 5.07407,21.5155 5.17058,20.5624 L5.72999,15.0373 L2.02984,10.8962 C1.39152,10.1818 1.76109,9.0444 2.6974,8.84164 L8.12496,7.66632 L10.67,3.29682 Z" id="形状" fill="#09244B"></path>
            </g>
        </g>
    </g>
</svg>

<svg xmlns="http://www.w3.org/2000/svg" width="24" height="24"><g fill="none" fill-rule="evenodd"><path d="M24 0v24H0V0h24ZM12.594 23.258l-.012.002-.071.035-.02.004-.014-.004-.071-.036c-.01-.003-.019 0-.024.006l-.004.01-.017.428.005.02.01.013.104.074.015.004.012-.004.104-.074.012-.016.004-.017-.017-.427c-.002-.01-.009-.017-.016-.018Zm.264-.113-.014.002-.184.093-.01.01-.003.011.018.43.005.012.008.008.201.092c.012.004.023 0 .029-.008l.004-.014-.034-.614c-.003-.012-.01-.02-.02-.022Zm-.715.002a.023.023 0 0 0-.027.006l-.006.014-.034.614c0 .012.007.02.017.024l.015-.002.201-.093.01-.008.003-.011.018-.43-.003-.012-.01-.01-.184-.092Z"/><path fill="#09244B" d="M11 6.704 9.687 8.959a1.25 1.25 0 0 1-.816.592l-4.492.973 3.063 3.427c.233.262.346.61.311.959l-.463 4.573L11 17.848V6.704Zm-.33-3.407c.642-1.103 2.33-.647 2.33.629v14.411c0 .495-.293.944-.746 1.144l-5.336 2.351a1.25 1.25 0 0 1-1.747-1.27l.559-5.525-3.7-4.14a1.25 1.25 0 0 1 .667-2.055l5.428-1.176 2.545-4.37Z"/></g></svg>
